!!!Melodie: ich dank dir schon durch meinen Sohn
!!!Typ: Lied
**kern	**silbe	**silbe	**silbe	**silbe	**silbe	**silbe	**silbe	**silbe	**silbe	**silbe	**silbe	**silbe
*clefG2	*lang:DE	*lang:DE	*lang:DE	*lang:DE	*lang:DE	*lang:DE	*lang:DE	*lang:DE	*lang:DE	*lang:DE	*lang:DE	*lang:DE
*M4/4	*	*	*	*	*	*	*	*	*	*	*	*
*met(c)	*	*	*	*	*	*	*	*	*	*	*	*
4g	Mein	Mich	Wer	Wer	Du	Ge#	Lass	Nimm	Gib	Dass	Dass	Dass
=	=	=	=	=	=	=	=	=	=	=	=	=
4cc	erst’	selbst	wacht,	lehrt	bist	#lo#	dei#	mei#	mir	ich	ich,	ich
4cc	Ge#	zu	wenn	das	es,	#bet	#nen	#nes	ein	als	dem	das
4dd	#fühl	schüt#	ich	Au#	Herr	seist	Se#	Le#	Herz	ein	Näch#	Glück
4cc	sei	#zen,	von	#ge	und	du,	#gen	#bens	voll	ge#	#sten	der
=	=	=	=	=	=	=	=	=	=	=	=	=
4cc	Preis	oh#	mir	sei#	Gott	Gott	auf	gnä#	Zu#	#treu#	bei#	Le#
4b	und	#ne	nichts	#ne	der	der	mir	#dig	#ver#	#er	#zu#	#bens#
4cc	Dank,	Macht,	weiß,	Pflicht,	Welt,	Macht,	ruh’n,	wahr;	#sicht,	Knecht	#steh'n,	#zeit
4dd	er#	lag	mein	sich	und	ge#	mich	auf	er#	nach	nie	in
=	=	=	=	=	=	=	=	=	=	=	=	=
8Ldd	#heb'	ich	Lei#	si#	dein	#lobt	dei#	dich	#füllt	dei#	Fleiß	dei#
8Jcc	|	|	|	|	|	|	|	|	|	|	|	|
4b	ihn,	und	#ben	#cher	ist	sei	#ne	hofft	mit	#nem	und	#ner
4a	mei#	schlief	zu	zu	un#	dei#	We#	mei#	Lieb’	Rei#	Ar#	Furcht
4g	#ne	im	be#	be#	#ser	#ne	#ge	#ne	und	#che	#beit	ge#
=	=	=	=	=	=	=	=	=	=	=	=	=
2f#	See#	Frie#	#wah#	#dek#	Le#	Treu#	wal#	See#	Ru#	stre#	scheu#	#nie#
4;g	#le;	#den;	#ren?	#ken?	#ben;	#e!	#len;	#le;	#he,	#be,	#e,	#ße
4cc	der	wer	Wer	Wer	du	Dass	und	sei	ein	gott#	mich	und
=	=	=	=	=	=	=	=	=	=	=	=	=
4cc	Herr	schafft	stärkt	ruft	bist	ich	leh#	mir	wei#	#se#	gern	mei#
4b-	hört	die	mein	dem	es,	nach	#re	ein	#ses	#lig,	an	#nen
4a	dei#	Si#	Blut	Tag	der	ei#	du	Ret#	Herz,	züch#	and’#	Lauf
4dd	#nen	#cher#	in	und	es	#ner	mich	#ter	das	#tig	#rer	mit
=	=	=	=	=	=	=	=	=	=	=	=	=
4ff	Lob#	#heit	sei#	sei#	uns	sanf#	sel#	in	sei#	und	Wohl#	Freu#
4ee	#ge#	der	#nem	#nem	er#	#ten	#ber	Ge#	#ne	ge#	#er#	#dig#
4dd	#sang;	Nacht	Fleiß	Licht,	#hält,	Nacht	tun	#fahr,	Pflicht	#recht	#geh'n	#keit,
4g	lob#	und	und	die	und	mich	nach	ein	er#	durch	und	wenn
=	=	=	=	=	=	=	=	=	=	=	=	=
4a	#sing'	Ru#	schützt	See#	mir’s	die#	dei#	Va#	#kennt	dei#	ih#	du
4g	ihm,	#he	mich	#le	jetzt	#ses	#nem	#ter,	und	#ne	#rer	ge#
4cc	mei#	für	vor	zu	neu	Tag’s	Wohl#	wenn	wil#	Gna#	Tu#	#biet’st,
4b	#ne	die	Ge#	er#	ge#	er#	#ge#	ich	#lig	#de	#gend	be#
=	=	=	=	=	=	=	=	=	=	=	=	=
2cc	See#	Mü#	#fah#	#wek#	#ge#	#freu#	#fal#	feh#	tu#	le#	freu#	#schlie#
4;cc	#le!	#den?	#ren?	#ken?	#ben.	#e.	#len.	#le.	#e.	#be.	#e.	#ße.
==	==	==	==	==	==	==	==	==	==	==	==	==
*-	*-	*-	*-	*-	*-	*-	*-	*-	*-	*-	*-	*-
